src/fullscreen-exit.svg

<svg xmlns="http://www.w3.org/2000/svg" viewBox="0 0 16 16" fill="#000000"><title>Exit Fullscreen</title><path id="fullscreen-exit_svg__Path_28" data-name="Path 28" d="M2.83,5.14v1h3.5V2.64h-1v2L2.71,2,2,2.71,4.44,5.14Z"/><path id="fullscreen-exit_svg__Path_29" data-name="Path 29" d="M13.27,6.23v-1H11.48L14,2.7,13.3,2,10.77,4.52V2.73h-1v3.5Z"/><path id="fullscreen-exit_svg__Path_30" data-name="Path 30" d="M10.86,11.56,13.3,14l.7-.71-2.62-2.62h2v-1H9.86v3.5h1Z"/><path id="fullscreen-exit_svg__Path_31" data-name="Path 31" d="M2.7,14l2.53-2.52v1.79h1V9.77H2.73v1H4.52L2,13.3Z"/></svg>

<svg viewBox="0 0 16 16" fill="none" xmlns="http://www.w3.org/2000/svg"><path d="M2.83 5.14V6.14H6.33V2.64H5.33V4.64L2.71 2L2 2.71L4.44 5.14H2.83Z" fill="#111111"/><path d="M13.27 6.23V5.23H11.48L14 2.7L13.3 2L10.77 4.52V2.73H9.77V6.23H13.27Z" fill="#111111"/><path d="M10.86 11.56L13.3 14L14 13.29L11.38 10.67H13.38V9.67H9.86V13.17H10.86V11.56Z" fill="#111111"/><path d="M2.7 14L5.23 11.48V13.27H6.23V9.77H2.73V10.77H4.52L2 13.3L2.7 14Z" fill="#111111"/></svg>
